X: 26743
T: Milk Market, The
R: jig
M: 6/8
K: Adorian
ABd BAF|ABA D3|ABd BAF|G2 g dBG|
ABd BAF|ABA D3|EFG F3|G3 BAG:|
cde g3|BAf g3|faf def|g2 d' bag|
cde g3|BAf g3|fed cBA|G3 BAG:|

